X:2147 
T:Silly old women was left alone 
T:There was an old woman who lived alone
C:Traditional
O:Isle of Man
Z:Clague collection
B:Kiaull Vannin #147 
M:6/8 
L:1/8
K:G 
D|G2G G2B|d2d d2d|c2c c2c|B2A G2D|G2G G2B|d2d d2d|c2A G2F|G3 G2|| 


